X:1
T:Title
%%score { 1 | 2 }
L:1/8
Q:1/4=108
M:4/4
K:F
V:1 treble nm="Grand Piano"
V:2 bass 
V:1
 F2 F2 F3 E | D2 E2 F2 G2 | A2 A2 c3 [DFB] | [CFA]2 [B,EG]2 F4 | A3 A A2 z A | c2 A2 c2 A2 | %6
w: Leslie~Watson * * *||||||
 c2 [Ad]2 [Ae]3 [Ae] | [_Ae]2 [EA]2 [E=A]4 | [Ec]3 [Ed] [Ec]2 [Ec]2 | c2 d2 c2 A2 | A3 B A3 E | %11
w: |||||
[M:5/4] F2 D2 [^CA]6 |[M:4/4] F2 F2 F3 E | D2 E2 F2 G2 | A3 A c2 [DFB]2 | %15
w: ||||
[M:5/4] [CFA]2 [B,EG]2 [A,F]6 |[M:4/4] [Ec]3 [Ed] [Ec]2 [Ec]2 | c2 d2 c2 A2 | [^Fd]3 [Fd] d3 A | %19
w: ||||
 B2 G2 [Ec]4 | [A,F]2 [B,DF]2 [A,CF]3 E | D2 E2 F2 G2 | %22
w: |||
[M:19/16] A/-A/-A-<Ac[Fd][Fd]/-[Fd]/-[Fd]/-[Fd]/-[Fd]/-[Fd]-<[Fd] |[M:4/4] [Fc]2 E2 F4 |] %24
w: ||
V:2
 F,2 F,2 F,3 E, | D,2 E,2 F,2 G,2 | [F,CF]2 [F,CF]2 [F,A,F]3 B,, | C,2 C,2 [F,A,]4 | %4
 [F,CF]3 [F,CF] [F,CF]2 z [F,CF] | [F,A,F]2 [F,CF]2 [F,A,F]2 [F,CF]2 | %6
 [F,A,F]2 [F,C]2 [E,C]3 [E,C] | [E,=B,]2 [E,D]2 [A,C]4 | [C,B,]3 [C,B,] [C,B,]2 [C,B,]2 | %9
 [F,A,F]2 [F,B,F]2 [F,A,F]2 [F,CF]2 | A,3 B, A,3 E, |[M:5/4] F,2 D,2 [A,,E,]6 | %12
[M:4/4] F,2 F,2 F,3 E, | D,2 E,2 F,2 G,2 | [F,CF]3 [F,CF] [F,A,F]2 B,,2 |[M:5/4] C,2 C,2 F,6 | %16
[M:4/4] [C,B,]3 [C,B,] [C,B,]2 [C,B,]2 | [F,A,F]2 [F,B,F]2 [F,A,F]2 [F,CF]2 | %18
 [D,C]3 [D,C][K:treble] [G,B,G]3 A, | B,2 G,2 [C,G,]4 | F,2 B,,2 F,3 E, | D,2 E,2 F,2 G,2 | %22
[M:19/16] [F,CF]/-[F,CF]/-[F,CF]-<[F,CF][F,A,F][B,,B,][B,,B,]/-[B,,B,]/-[B,,B,]/-[B,,B,]/-[B,,B,]/-[B,,B,]-<[B,,B,] | %23
[M:4/4] [C,A,]2 [C,B,C]2 [F,A,C]4 |] %24

